icons/nocra_light.svg

<svg width="100" height="100" fill="none" version="1.1" viewBox="0 0 100 100" xmlns="http://www.w3.org/2000/svg">
 <path d="m37.316 62.667h0.0107v25.334h-25.326v-25.333h-1e-3l25.316-25.322-0.0117-0.0117h0.0117v25.333zm50.654 0h0.0107v25.334h-25.326v-25.333h-1e-3l25.316-25.323-0.0107-0.0107h0.0107v25.333zm-25.316-50.648 25.336 25.303 0.0108-0.0118 1e-3 0.0118-25.327 0.0195v0.0117l-25.327 0.0195-0.0196-25.334 25.326-0.0196z" fill="#455a64"/>
</svg>

<svg width="100" height="100" viewBox="0 0 100 100" fill="none" xmlns="http://www.w3.org/2000/svg">
<path d="M37.3164 62.667H37.3271V88.001H12.001V62.668H12L37.3164 37.3457L37.3047 37.334H37.3164V62.667ZM87.9707 62.667H87.9814V88.001H62.6553V62.668H62.6543L87.9707 37.3447L87.96 37.334H87.9707V62.667ZM62.6543 12.0195L87.9902 37.3223L88.001 37.3105L88.002 37.3223L62.6748 37.3418V37.3535L37.3477 37.373L37.3281 12.0391L62.6543 12.0195Z" fill="#212121"/>
</svg>
